static/images/skills/react.svg

<svg xmlns="http://www.w3.org/2000/svg" xml:space="preserve" style="fill-rule:evenodd;clip-rule:evenodd;stroke-linejoin:round;stroke-miterlimit:2" viewBox="0 0 1200 900"><path d="M0 0h1200v900H0z" style="fill:#23272f"/><g transform="translate(293.291 143.291)scale(4.79233)"><circle cx="64" cy="64" r="11.4" style="fill:#61dafb"/><path d="M107.3 45.2c-2.2-.8-4.5-1.6-6.9-2.3.6-2.4 1.1-4.8 1.5-7.1 2.1-13.2-.2-22.5-6.6-26.1-1.9-1.1-4-1.6-6.4-1.6-7 0-15.9 5.2-24.9 13.9-9-8.7-17.9-13.9-24.9-13.9-2.4 0-4.5.5-6.4 1.6-6.4 3.7-8.7 13-6.6 26.1.4 2.3.9 4.7 1.5 7.1-2.4.7-4.7 1.4-6.9 2.3C8.2 50 1.4 56.6 1.4 64s6.9 14 19.3 18.8c2.2.8 4.5 1.6 6.9 2.3-.6 2.4-1.1 4.8-1.5 7.1-2.1 13.2.2 22.5 6.6 26.1 1.9 1.1 4 1.6 6.4 1.6 7.1 0 16-5.2 24.9-13.9 9 8.7 17.9 13.9 24.9 13.9 2.4 0 4.5-.5 6.4-1.6 6.4-3.7 8.7-13 6.6-26.1-.4-2.3-.9-4.7-1.5-7.1 2.4-.7 4.7-1.4 6.9-2.3 12.5-4.8 19.3-11.4 19.3-18.8s-6.8-14-19.3-18.8M92.5 14.7c4.1 2.4 5.5 9.8 3.8 20.3-.3 2.1-.8 4.3-1.4 6.6-5.2-1.2-10.7-2-16.5-2.5-3.4-4.8-6.9-9.1-10.4-13 7.4-7.3 14.9-12.3 21-12.3 1.3 0 2.5.3 3.5.9M81.3 74c-1.8 3.2-3.9 6.4-6.1 9.6-3.7.3-7.4.4-11.2.4-3.9 0-7.6-.1-11.2-.4q-3.3-4.8-6-9.6c-1.9-3.3-3.7-6.7-5.3-10 1.6-3.3 3.4-6.7 5.3-10 1.8-3.2 3.9-6.4 6.1-9.6 3.7-.3 7.4-.4 11.2-.4 3.9 0 7.6.1 11.2.4q3.3 4.8 6 9.6c1.9 3.3 3.7 6.7 5.3 10-1.7 3.3-3.4 6.6-5.3 10m8.3-3.3c1.5 3.5 2.7 6.9 3.8 10.3-3.4.8-7 1.4-10.8 1.9 1.2-1.9 2.5-3.9 3.6-6 1.2-2.1 2.3-4.2 3.4-6.2M64 97.8c-2.4-2.6-4.7-5.4-6.9-8.3 2.3.1 4.6.2 6.9.2s4.6-.1 6.9-.2c-2.2 2.9-4.5 5.7-6.9 8.3m-18.6-15c-3.8-.5-7.4-1.1-10.8-1.9 1.1-3.3 2.3-6.8 3.8-10.3 1.1 2 2.2 4.1 3.4 6.1 1.2 2.2 2.4 4.1 3.6 6.1m-7-25.5c-1.5-3.5-2.7-6.9-3.8-10.3 3.4-.8 7-1.4 10.8-1.9-1.2 1.9-2.5 3.9-3.6 6-1.2 2.1-2.3 4.2-3.4 6.2M64 30.2c2.4 2.6 4.7 5.4 6.9 8.3-2.3-.1-4.6-.2-6.9-.2s-4.6.1-6.9.2c2.2-2.9 4.5-5.7 6.9-8.3m22.2 21-3.6-6c3.8.5 7.4 1.1 10.8 1.9-1.1 3.3-2.3 6.8-3.8 10.3-1.1-2.1-2.2-4.2-3.4-6.2M31.7 35c-1.7-10.5-.3-17.9 3.8-20.3 1-.6 2.2-.9 3.5-.9 6 0 13.5 4.9 21 12.3-3.5 3.8-7 8.2-10.4 13-5.8.5-11.3 1.4-16.5 2.5-.6-2.3-1-4.5-1.4-6.6M7 64c0-4.7 5.7-9.7 15.7-13.4 2-.8 4.2-1.5 6.4-2.1 1.6 5 3.6 10.3 6 15.6-2.4 5.3-4.5 10.5-6 15.5C15.3 75.6 7 69.6 7 64m28.5 49.3c-4.1-2.4-5.5-9.8-3.8-20.3.3-2.1.8-4.3 1.4-6.6 5.2 1.2 10.7 2 16.5 2.5 3.4 4.8 6.9 9.1 10.4 13-7.4 7.3-14.9 12.3-21 12.3-1.3 0-2.5-.3-3.5-.9M96.3 93c1.7 10.5.3 17.9-3.8 20.3-1 .6-2.2.9-3.5.9-6 0-13.5-4.9-21-12.3 3.5-3.8 7-8.2 10.4-13 5.8-.5 11.3-1.4 16.5-2.5.6 2.3 1 4.5 1.4 6.6m9-15.6c-2 .8-4.2 1.5-6.4 2.1-1.6-5-3.6-10.3-6-15.6 2.4-5.3 4.5-10.5 6-15.5 13.8 4 22.1 10 22.1 15.6 0 4.7-5.8 9.7-15.7 13.4" style="fill:#61dafb;fill-rule:nonzero"/></g></svg>

<?xml version="1.0" encoding="UTF-8" standalone="no"?>
<!DOCTYPE svg PUBLIC "-//W3C//DTD SVG 1.1//EN" "http://www.w3.org/Graphics/SVG/1.1/DTD/svg11.dtd">
<svg width="100%" height="100%" viewBox="0 0 1200 900" version="1.1" xmlns="http://www.w3.org/2000/svg" xmlns:xlink="http://www.w3.org/1999/xlink" xml:space="preserve" xmlns:serif="http://www.serif.com/" style="fill-rule:evenodd;clip-rule:evenodd;stroke-linejoin:round;stroke-miterlimit:2;">
    <rect x="0" y="0" width="1200" height="900" style="fill:rgb(35,39,47);"/>
    <g transform="matrix(4.79233,0,0,4.79233,293.291,143.291)">
        <circle cx="64" cy="64" r="11.4" style="fill:rgb(97,218,251);"/>
        <path d="M107.3,45.2C105.1,44.4 102.8,43.6 100.4,42.9C101,40.5 101.5,38.1 101.9,35.8C104,22.6 101.7,13.3 95.3,9.7C93.4,8.6 91.3,8.1 88.9,8.1C81.9,8.1 73,13.3 64,22C55,13.3 46.1,8.1 39.1,8.1C36.7,8.1 34.6,8.6 32.7,9.7C26.3,13.4 24,22.7 26.1,35.8C26.5,38.1 27,40.5 27.6,42.9C25.2,43.6 22.9,44.3 20.7,45.2C8.2,50 1.4,56.6 1.4,64C1.4,71.4 8.3,78 20.7,82.8C22.9,83.6 25.2,84.4 27.6,85.1C27,87.5 26.5,89.9 26.1,92.2C24,105.4 26.3,114.7 32.7,118.3C34.6,119.4 36.7,119.9 39.1,119.9C46.2,119.9 55.1,114.7 64,106C73,114.7 81.9,119.9 88.9,119.9C91.3,119.9 93.4,119.4 95.3,118.3C101.7,114.6 104,105.3 101.9,92.2C101.5,89.9 101,87.5 100.4,85.1C102.8,84.4 105.1,83.7 107.3,82.8C119.8,78 126.6,71.4 126.6,64C126.6,56.6 119.8,50 107.3,45.2ZM92.5,14.7C96.6,17.1 98,24.5 96.3,35C96,37.1 95.5,39.3 94.9,41.6C89.7,40.4 84.2,39.6 78.4,39.1C75,34.3 71.5,30 68,26.1C75.4,18.8 82.9,13.8 89,13.8C90.3,13.8 91.5,14.1 92.5,14.7ZM81.3,74C79.5,77.2 77.4,80.4 75.2,83.6C71.5,83.9 67.8,84 64,84C60.1,84 56.4,83.9 52.8,83.6C50.6,80.4 48.6,77.2 46.8,74C44.9,70.7 43.1,67.3 41.5,64C43.1,60.7 44.9,57.3 46.8,54C48.6,50.8 50.7,47.6 52.9,44.4C56.6,44.1 60.3,44 64.1,44C68,44 71.7,44.1 75.3,44.4C77.5,47.6 79.5,50.8 81.3,54C83.2,57.3 85,60.7 86.6,64C84.9,67.3 83.2,70.6 81.3,74ZM89.6,70.7C91.1,74.2 92.3,77.6 93.4,81C90,81.8 86.4,82.4 82.6,82.9C83.8,81 85.1,79 86.2,76.9C87.4,74.8 88.5,72.7 89.6,70.7ZM64,97.8C61.6,95.2 59.3,92.4 57.1,89.5C59.4,89.6 61.7,89.7 64,89.7C66.3,89.7 68.6,89.6 70.9,89.5C68.7,92.4 66.4,95.2 64,97.8ZM45.4,82.8C41.6,82.3 38,81.7 34.6,80.9C35.7,77.6 36.9,74.1 38.4,70.6C39.5,72.6 40.6,74.7 41.8,76.7C43,78.9 44.2,80.8 45.4,82.8ZM38.4,57.3C36.9,53.8 35.7,50.4 34.6,47C38,46.2 41.6,45.6 45.4,45.1C44.2,47 42.9,49 41.8,51.1C40.6,53.2 39.5,55.3 38.4,57.3ZM64,30.2C66.4,32.8 68.7,35.6 70.9,38.5C68.6,38.4 66.3,38.3 64,38.3C61.7,38.3 59.4,38.4 57.1,38.5C59.3,35.6 61.6,32.8 64,30.2ZM86.2,51.2L82.6,45.2C86.4,45.7 90,46.3 93.4,47.1C92.3,50.4 91.1,53.9 89.6,57.4C88.5,55.3 87.4,53.2 86.2,51.2ZM31.7,35C30,24.5 31.4,17.1 35.5,14.7C36.5,14.1 37.7,13.8 39,13.8C45,13.8 52.5,18.7 60,26.1C56.5,29.9 53,34.3 49.6,39.1C43.8,39.6 38.3,40.5 33.1,41.6C32.5,39.3 32.1,37.1 31.7,35ZM7,64C7,59.3 12.7,54.3 22.7,50.6C24.7,49.8 26.9,49.1 29.1,48.5C30.7,53.5 32.7,58.8 35.1,64.1C32.7,69.4 30.6,74.6 29.1,79.6C15.3,75.6 7,69.6 7,64ZM35.5,113.3C31.4,110.9 30,103.5 31.7,93C32,90.9 32.5,88.7 33.1,86.4C38.3,87.6 43.8,88.4 49.6,88.9C53,93.7 56.5,98 60,101.9C52.6,109.2 45.1,114.2 39,114.2C37.7,114.2 36.5,113.9 35.5,113.3ZM96.3,93C98,103.5 96.6,110.9 92.5,113.3C91.5,113.9 90.3,114.2 89,114.2C83,114.2 75.5,109.3 68,101.9C71.5,98.1 75,93.7 78.4,88.9C84.2,88.4 89.7,87.5 94.9,86.4C95.5,88.7 95.9,90.9 96.3,93ZM105.3,77.4C103.3,78.2 101.1,78.9 98.9,79.5C97.3,74.5 95.3,69.2 92.9,63.9C95.3,58.6 97.4,53.4 98.9,48.4C112.7,52.4 121,58.4 121,64C121,68.7 115.2,73.7 105.3,77.4Z" style="fill:rgb(97,218,251);fill-rule:nonzero;"/>
    </g>
</svg>
